common/resources/fonts/svg/linked.svg

<?xml version="1.0" encoding="UTF-8" standalone="no"?>
<svg width="1024px" height="1024px" viewBox="0 0 1024 1024" version="1.1" xmlns="http://www.w3.org/2000/svg" xmlns:xlink="http://www.w3.org/1999/xlink">
    <!-- Generator: Sketch 3.7.1 (28215) - http://www.bohemiancoding.com/sketch -->
    <title>linked</title>
    <desc>Created with Sketch.</desc>
    <defs></defs>
    <g id="Page-1" stroke="none" stroke-width="1" fill="none" fill-rule="evenodd">
        <g id="linked" fill="#000000">
            <path d="M512.539063,63.6796875 C267.714844,63.6796875 69.25,262.144531 69.25,506.96875 C69.25,751.792969 267.714844,950.257812 512.539063,950.257812 C757.363281,950.257812 955.828125,751.792969 955.828125,506.96875 C955.828125,262.144531 757.363281,63.6796875 512.539063,63.6796875 L512.539063,63.6796875 Z M402.121094,759.25 C256.933594,759.25 138.878906,641.105469 138.878906,496.007813 C138.878906,350.910156 257.023438,232.765625 402.121094,232.765625 C429.703125,232.765625 456.386719,237.078125 481.363281,244.984375 C451.175781,261.246094 424.222656,282.71875 401.761719,308.324219 C298.441406,308.503906 214.4375,392.6875 214.4375,496.007813 C214.4375,599.417969 298.441406,683.511719 401.761719,683.691406 C424.222656,709.296875 451.175781,730.769531 481.363281,747.03125 C456.296875,755.027344 429.703125,759.25 402.121094,759.25 L402.121094,759.25 Z M615.769531,759.25 C577.765625,759.25 541.558594,750.085937 508.945313,736.609375 L508.945313,736.609375 C505.261719,735.710937 501.667969,733.195312 498.074219,731.398437 C497.984375,731.398437 497.894531,731.308594 497.804688,731.308594 C494.300781,729.511719 490.796875,727.714844 487.382813,725.738281 C487.203125,725.648437 487.113281,725.558594 486.933594,725.46875 C483.519531,723.582031 480.195313,721.605469 476.960938,719.539062 C476.78125,719.449219 476.601563,719.269531 476.421875,719.179687 C473.1875,717.113281 469.953125,715.046875 466.808594,712.890625 C466.628906,712.710937 466.359375,712.621094 466.179688,712.441406 C463.035156,710.285156 459.980469,708.039062 456.925781,705.792969 C456.746094,705.613281 456.476563,705.433594 456.296875,705.34375 C453.242188,703.007812 450.277344,700.671875 447.402344,698.246094 C447.222656,698.066406 447.042969,697.976562 446.863281,697.796875 C443.898438,695.371094 441.023438,692.855469 438.238281,690.25 C438.148438,690.160156 437.96875,690.070312 437.878906,689.890625 C435.003906,687.195312 432.128906,684.5 429.34375,681.714844 L429.34375,681.714844 C381.90625,634.097656 352.527344,568.421875 352.527344,496.007812 C352.527344,423.59375 381.90625,357.917969 429.34375,310.300781 L429.34375,310.300781 C432.128906,307.515625 434.914063,304.820312 437.878906,302.125 C437.96875,302.035156 438.148438,301.945312 438.238281,301.765625 C441.113281,299.160156 443.988281,296.644531 446.863281,294.21875 C447.042969,294.039062 447.222656,293.949219 447.402344,293.769531 C450.277344,291.34375 453.332031,289.007812 456.296875,286.671875 C456.476563,286.492187 456.746094,286.3125 456.925781,286.222656 C459.980469,283.886719 463.035156,281.730469 466.179688,279.574219 C466.359375,279.394531 466.628906,279.304687 466.808594,279.125 C469.953125,276.96875 473.097656,274.902344 476.421875,272.835937 C476.601563,272.746094 476.78125,272.566406 476.960938,272.476562 C480.195313,270.410156 483.519531,268.433594 486.933594,266.546875 C487.113281,266.457031 487.203125,266.367187 487.382813,266.277344 C490.796875,264.390625 494.300781,262.503906 497.804688,260.707031 C497.894531,260.707031 497.984375,260.886719 498.074219,260.886719 C501.667969,259.089844 505.261719,256.84375 508.945313,255.945312 L508.945313,255.945312 C541.648438,240.671875 577.765625,233.035156 615.769531,233.035156 C760.957031,233.035156 879.011719,351 879.011719,496.1875 C879.011719,641.375 760.957031,759.25 615.769531,759.25 L615.769531,759.25 Z M608.3125,312.277344 C599.238281,312.277344 590.34375,312.996094 581.628906,314.253906 C580.371094,314.433594 579.203125,314.613281 577.945313,314.882813 C576.597656,315.152344 575.25,315.332031 573.902344,315.601563 C572.105469,315.960938 570.398438,316.320313 568.601563,316.679688 C567.253906,316.949219 565.90625,317.308594 564.558594,317.578125 C563.300781,317.847656 562.042969,318.207031 560.785156,318.566406 C558.898438,319.105469 557.011719,319.554688 555.214844,320.183594 C553.957031,320.542969 552.609375,320.992188 551.351563,321.441406 C550.273438,321.800781 549.195313,322.160156 548.117188,322.519531 C546.140625,323.238281 544.074219,323.957031 542.097656,324.765625 C541.199219,325.125 540.210938,325.484375 539.3125,325.84375 C537.15625,326.742188 535,327.640625 532.84375,328.628906 C532.035156,328.988281 531.316406,329.347656 530.507813,329.707031 C529.160156,330.335938 527.722656,331.054688 526.375,331.683594 C525.746094,331.953125 525.117188,332.3125 524.488281,332.671875 C522.152344,333.839844 519.90625,335.097656 517.570313,336.355469 C517.03125,336.714844 516.402344,336.984375 515.863281,337.34375 C513.4375,338.78125 511.011719,340.21875 508.675781,341.746094 C508.316406,342.015625 507.957031,342.195313 507.597656,342.464844 C506.25,343.363281 504.8125,344.261719 503.464844,345.25 C455.578125,378.492188 424.222656,433.835938 424.222656,496.367188 C424.222656,558.898438 455.667969,614.242188 503.464844,647.484375 C504.8125,648.472656 506.160156,649.371094 507.597656,650.269531 C507.957031,650.539063 508.316406,650.71875 508.675781,650.898438 C511.011719,652.425781 513.4375,653.953125 515.863281,655.300781 C516.402344,655.660156 517.03125,655.929688 517.570313,656.289063 C519.816406,657.546875 522.152344,658.804688 524.488281,660.0625 C525.117188,660.332031 525.746094,660.691406 526.285156,660.960938 C527.632813,661.679688 529.070313,662.308594 530.417969,662.9375 C531.226563,663.296875 531.945313,663.65625 532.753906,664.015625 C534.910156,665.003906 537.066406,665.902344 539.222656,666.800781 C540.121094,667.160156 541.109375,667.519531 542.007813,667.878906 C543.984375,668.6875 546.050781,669.40625 548.027344,670.125 C549.105469,670.484375 550.183594,670.84375 551.261719,671.203125 C552.519531,671.652344 553.867188,672.011719 555.125,672.460938 C557.011719,673 558.808594,673.539063 560.695313,674.078125 C561.953125,674.4375 563.210938,674.707031 564.46875,675.066406 C565.816406,675.425781 567.164063,675.695313 568.511719,675.964844 C570.308594,676.324219 572.015625,676.683594 573.8125,677.042969 C575.160156,677.3125 576.507813,677.492188 577.855469,677.761719 C579.113281,677.941406 580.28125,678.210938 581.539063,678.390625 C590.253906,679.648438 599.148438,680.367188 608.222656,680.367188 C709.65625,680.367188 792.132813,597.890625 792.132813,496.457031 C792.222656,394.84375 709.746094,312.277344 608.3125,312.277344 L608.3125,312.277344 Z M599.148438,658.714844 C570.578125,657.097656 543.984375,648.113281 521.164063,633.558594 C558.988281,599.867187 582.976563,550.8125 582.976563,496.1875 C582.976563,441.652344 559.078125,392.597656 521.164063,358.816406 C543.984375,344.261719 570.578125,335.277344 599.148438,333.660156 C635.265625,378.042969 656.917969,434.644531 656.917969,496.1875 C656.917969,557.730469 635.175781,614.332031 599.148438,658.714844 L599.148438,658.714844 Z" id="Shape"></path>
        </g>
    </g>
</svg>

<svg width="1024" height="1024" viewBox="0 0 1024 1024">
    <path d="M512.54 63.68c-244.825 0-443.29 198.465-443.29 443.289 0 244.824 198.465 443.289 443.29 443.289 244.823 0 443.288-198.465 443.288-443.29 0-244.823-198.465-443.288-443.289-443.288zM402.12 759.25c-145.187 0-263.242-118.145-263.242-263.242 0-145.098 118.144-263.242 263.242-263.242 27.582 0 54.266 4.312 79.242 12.218-30.187 16.262-57.14 37.735-79.601 63.34-103.32.18-187.325 84.363-187.325 187.684 0 103.41 84.004 187.504 187.325 187.683 22.46 25.606 49.414 47.079 79.601 63.34-25.066 7.996-51.66 12.219-79.242 12.219zm213.649 0c-38.004 0-74.211-9.164-106.825-22.64-3.683-.9-7.277-3.415-10.87-5.212-.09 0-.18-.09-.27-.09-3.504-1.796-7.008-3.593-10.422-5.57-.18-.09-.27-.18-.45-.27a182.24 182.24 0 0 1-9.972-5.929c-.18-.09-.36-.27-.54-.36-3.233-2.066-6.468-4.132-9.612-6.288-.18-.18-.45-.27-.63-.45-3.144-2.156-6.199-4.402-9.253-6.648a2.73 2.73 0 0 0-.63-.45c-3.054-2.335-6.019-4.671-8.894-7.097-.18-.18-.359-.27-.539-.45a172.721 172.721 0 0 1-8.625-7.546c-.09-.09-.27-.18-.36-.36-2.874-2.695-5.75-5.39-8.534-8.175-47.438-47.617-76.817-113.293-76.817-185.707 0-72.414 29.38-138.09 76.817-185.707 2.785-2.785 5.57-5.48 8.535-8.176.09-.09.27-.18.36-.36a323.768 323.768 0 0 1 8.624-7.546c.18-.18.36-.27.54-.45 2.874-2.425 5.929-4.761 8.894-7.097.18-.18.45-.36.629-.45 3.054-2.335 6.11-4.492 9.254-6.648.18-.18.449-.27.629-.449a253.48 253.48 0 0 1 9.613-6.29c.18-.089.36-.269.539-.358a182.24 182.24 0 0 1 9.973-5.93c.18-.09.27-.18.449-.27a382.857 382.857 0 0 1 10.422-5.57c.09 0 .18.18.27.18 3.593-1.797 7.187-4.043 10.87-4.942 32.703-15.273 68.82-22.91 106.825-22.91 145.187 0 263.242 117.965 263.242 263.152 0 145.188-118.055 263.063-263.242 263.063zm-7.457-446.973c-9.075 0-17.97.72-26.684 1.977-1.258.18-2.426.36-3.684.629-1.347.27-2.695.449-4.043.719-1.797.359-3.504.718-5.3 1.078-1.348.27-2.696.629-4.043.898-1.258.27-2.516.629-3.774.988-1.887.54-3.773.989-5.57 1.618a64.059 64.059 0 0 0-3.863 1.257l-3.235 1.079c-1.976.718-4.043 1.437-6.02 2.246-.898.359-1.886.718-2.784 1.078-2.157.898-4.313 1.797-6.47 2.785-.808.36-1.527.719-2.335 1.078-1.348.629-2.785 1.348-4.133 1.977-.629.27-1.258.628-1.887.988-2.336 1.168-4.582 2.426-6.918 3.683-.539.36-1.168.63-1.707.989-2.426 1.437-4.851 2.875-7.187 4.402-.36.27-.719.45-1.078.719-1.348.898-2.786 1.797-4.133 2.785-47.887 33.242-79.242 88.586-79.242 151.117 0 62.531 31.445 117.875 79.242 151.117a66.407 66.407 0 0 0 4.133 2.786c.359.27.718.449 1.078.628 2.336 1.528 4.762 3.055 7.187 4.403.54.36 1.168.629 1.707.988a481.108 481.108 0 0 0 6.918 3.774c.63.269 1.258.628 1.797.898 1.348.719 2.785 1.348 4.133 1.976.809.36 1.527.72 2.336 1.079 2.156.988 4.312 1.886 6.469 2.785.898.36 1.886.719 2.785 1.078 1.976.808 4.043 1.527 6.02 2.246l3.234 1.078c1.258.45 2.605.809 3.863 1.258 1.887.539 3.684 1.078 5.57 1.617 1.258.36 2.516.629 3.774.988 1.347.36 2.695.63 4.043.899 1.797.36 3.504.719 5.3 1.078 1.348.27 2.696.45 4.043.719 1.258.18 2.426.449 3.684.629 8.715 1.257 17.61 1.976 26.684 1.976 101.433 0 183.91-82.476 183.91-183.91.09-101.613-82.387-184.18-183.82-184.18zm-9.165 346.438c-28.57-1.617-55.164-10.602-77.984-25.156 37.824-33.692 61.813-82.746 61.813-137.371 0-54.536-23.899-103.59-61.813-137.372 22.82-14.554 49.414-23.539 77.984-25.156 36.118 44.383 57.77 100.985 57.77 162.527 0 61.543-21.742 118.145-57.77 162.528z" fill-rule="evenodd"/>
</svg>
